!!!OTL: 562. Der Abt (Gesellschaftsspiel mit Platzwechsel). / Dritte Melodie.
!!!ARE: Europa, Mitteleuropa, Deutschland, Schlesien
!!!SCT: K2562B
!!!TXL: @@DE
!!!YEM: Copyright 1995, estate of Helmut Schaffrath.
**kern	**text
*clefG2	*
*M2/4	*
*k[f#]	*
*G:	*
=1	=1
{4g	Sa,
4g	ſa,
=2	=2
4g	ſa!
8r}	.
{8b	Der
=3	=3
8cc	Abt
8cc	iſt
8a	nicht
8a	ʒu
=4	=4
4dd	Hau-
4b}	-ſe!
=5	=5
{8cc	Wenn
8cc	er
8a	wird
8a	nach
=6	=6
8dd	Hau-
8dd	-ſe
8b	kom-
8b}	-men.
=7	=7
{8cc	wird
8cc	er
8a	wohl
8a	ge-
=8	=8
8dd	-klin-
8dd	-gelt
8b	kom-
8b}	-men.
=9	=9
{4g	Sa,
4g	ſa,
=10	=10
4g	ſa!
4r}	.
=11	=11
{4g	Sa,
4g	ſa,
=12	=12
4g	ſa!
4r}	.
==	==
!!!AGN: Kinder - Lied, Gesellschafts - Spiel
!!!ONB: ESAC (Essen Associative Code) Database: KINDER
!!!AMT: simple duple
!!!AIN: vox
!!!EED: Helmut Schaffrath
!!!EEV: 1.0
!!Aus Schlesien (Jakob Nr. 114).
!!!GTL: Zweites Buch. Kinderspiel: 10. Gesellschafts- und Pfaenderspiele. / [Nur um Theil fuer Kinder gehoerend; das meiste ist altes Erbgut der heranwachsenden Jugend.]
!!!URL-scan: https://archive.org/details/DeutschesKinderliedUndKinderspiel/page/647/mode/1up
!!!ENC: Anna Maria Matuszewska
!!!EEV: 2024/05/09
*-	*-
